public/intorilogomark.svg

<svg fill="none" height="36" viewBox="0 0 26 36" width="26" xmlns="http://www.w3.org/2000/svg"><path d="m0 11.8753c.0593488-3.03737 1.29883-5.93013 3.45225-8.05702 2.15341-2.1269 5.04899-3.31828 8.06485-3.31828 3.0159 0 5.9114 1.19138 8.0648 3.31828 2.1535 2.12689 3.3929 5.01965 3.4523 8.05702 0 6.3186-5.1886 11.4013-11.5729 11.4013-1.49701.0143-2.98209-.2699-4.3697-.836-1.38761-.5662-2.65036-1.4032-3.7156-2.4628-1.06523-1.0597-1.91191-2.3211-2.491302-3.7117-.579393-1.3905-.88005858-2.8828-.884698-4.3908zm17.4842-.036c.0218-.8032-.1164-1.6026-.4065-2.35106-.29-.74846-.7261-1.43078-1.2823-2.00663-.5563-.57586-1.2215-1.03358-1.9563-1.34612-.7348-.31255-1.5244-.47358-2.322-.47358s-1.58719.16103-2.32201.47358c-.73482.31254-1.4.77026-1.95626 1.34612-.55625.57585-.9923 1.25817-1.28237 2.00663s-.42828 1.54786-.40647 2.35106c-.02181.8032.1164 1.6026.40647 2.3511.29007.7484.72612 1.4308 1.28237 2.0066.55626.5759 1.22144 1.0336 1.95626 1.3461.73482.3126 1.52441.4736 2.32201.4736s1.5872-.161 2.322-.4736c.7348-.3125 1.4-.7702 1.9563-1.3461.5562-.5758.9923-1.2582 1.2823-2.0066.2901-.7485.4283-1.5479.4065-2.3511zm-12.45174 20.5962c-.41937.2696-.77182.2472-1.03059-.1034l-2.16378-3.0334c-.2543-.3506-.08922-.773.50414-1.1505 3.67046-2.3487 8.06747-3.2628 12.36107-2.5698 4.2937.6929 8.187 2.9451 10.9453 6.3313.4461.5483.4461 1.0022.1204 1.2538l-3.0114 2.1931c-.3525.2562-.696.1618-1.0083-.2247-1.9775-2.4301-4.7703-4.0464-7.8505-4.5432s-6.23437.1602-8.86634 1.8468z" fill="#9664fa"/></svg>

<svg width="26" height="36" viewBox="0 0 26 36" fill="none" xmlns="http://www.w3.org/2000/svg">
<path d="M0 11.8753C0.0593488 8.83793 1.29883 5.94517 3.45225 3.81828C5.60566 1.69138 8.50124 0.5 11.5171 0.5C14.533 0.5 17.4285 1.69138 19.5819 3.81828C21.7354 5.94517 22.9748 8.83793 23.0342 11.8753C23.0342 18.1939 17.8456 23.2766 11.4613 23.2766C9.96429 23.2909 8.47921 23.0067 7.0916 22.4406C5.70399 21.8744 4.44124 21.0374 3.376 19.9778C2.31077 18.9181 1.46409 17.6567 0.884698 16.2661C0.305305 14.8756 0.00463942 13.3833 0 11.8753ZM17.4842 11.8393C17.506 11.0361 17.3678 10.2367 17.0777 9.48824C16.7877 8.73978 16.3516 8.05746 15.7954 7.48161C15.2391 6.90575 14.5739 6.44803 13.8391 6.13549C13.1043 5.82294 12.3147 5.66191 11.5171 5.66191C10.7195 5.66191 9.92991 5.82294 9.19509 6.13549C8.46027 6.44803 7.79509 6.90575 7.23883 7.48161C6.68258 8.05746 6.24653 8.73978 5.95646 9.48824C5.66639 10.2367 5.52818 11.0361 5.54999 11.8393C5.52818 12.6425 5.66639 13.4419 5.95646 14.1904C6.24653 14.9388 6.68258 15.6212 7.23883 16.197C7.79509 16.7729 8.46027 17.2306 9.19509 17.5431C9.92991 17.8557 10.7195 18.0167 11.5171 18.0167C12.3147 18.0167 13.1043 17.8557 13.8391 17.5431C14.5739 17.2306 15.2391 16.7729 15.7954 16.197C16.3516 15.6212 16.7877 14.9388 17.0777 14.1904C17.3678 13.4419 17.506 12.6425 17.4842 11.8393ZM5.03246 32.4355C4.61309 32.7051 4.26064 32.6827 4.00187 32.3321L1.83809 29.2987C1.58379 28.9481 1.74887 28.5257 2.34223 28.1482C6.01269 25.7995 10.4097 24.8854 14.7033 25.5784C18.997 26.2713 22.8903 28.5235 25.6486 31.9097C26.0947 32.458 26.0947 32.9119 25.769 33.1635L22.7576 35.3566C22.4051 35.6128 22.0616 35.5184 21.7493 35.1319C19.7718 32.7018 16.979 31.0855 13.8988 30.5887C10.8186 30.0919 7.66443 30.7489 5.03246 32.4355Z" fill="#9664FA"/>
</svg>
